src/bright/hiso font bright_p19-hammer reversed.svg

<svg xmlns="http://www.w3.org/2000/svg" width="126" height="126" viewBox="0 0 126 126"><path fill="#000101" d="M81 36l-27 13.5v9l-45-22.5-9 4.5v18l54 27v18l27 13.5 27-13.5v-54l-27-13.5zm23.646 15.178l-23.646 11.822-23.646-11.823 23.646-11.827 23.646 11.828zm-50.646 10.672v5.65l-50.65-25.32 5.65-2.83 45 22.5zm51 39.8l-24 12v-47.3l24-12v47.3z"/></svg>

<svg xmlns="http://www.w3.org/2000/svg" width="126" height="126"><path fill="#000101" d="M81 36L54 49.5v9L9 36l-9 4.5v18l54 27v18L81 117l27-13.5v-54L81 36zm23.646 15.178L81 63 57.354 51.177 81 39.35l23.646 11.828zM54 61.85v5.65L3.35 42.18 9 39.35l45 22.5zm51 39.8l-24 12v-47.3l24-12v47.3z"/></svg>
